dist/img/svg/icon-ok-col.svg

<svg width="32" height="32" viewBox="0 0 32 32" fill="none" xmlns="http://www.w3.org/2000/svg">
<circle cx="16" cy="16" r="16" fill="#F7931E"/>
<path d="M15.5182 19.6785C14.1228 19.5329 12.8647 19.1893 11.7875 18.3468C11.6538 18.242 11.5158 18.1409 11.3938 18.0238C10.9223 17.571 10.8748 17.0524 11.2479 16.518C11.5671 16.0606 12.1028 15.9383 12.6597 16.2009C12.7676 16.2518 12.8703 16.3153 12.9687 16.3835C14.9763 17.7629 17.7341 17.801 19.7492 16.4456C19.9488 16.2925 20.1622 16.1677 20.4096 16.104C20.8905 15.9805 21.339 16.1571 21.5971 16.5779C21.8919 17.0584 21.8881 17.5275 21.5248 17.9006C20.9676 18.4725 20.2974 18.8863 19.5527 19.1751C18.8486 19.4481 18.0774 19.5855 17.3141 19.6768C17.4293 19.8021 17.4836 19.8638 17.5556 19.9362C18.5921 20.9776 19.6331 22.0146 20.6661 23.0592C21.0181 23.4151 21.0916 23.8564 20.8978 24.2704C20.6859 24.7229 20.2116 25.0205 19.7465 24.9887C19.4519 24.9683 19.2221 24.8217 19.0179 24.616C18.2358 23.8289 17.4389 23.0564 16.6726 22.2544C16.4495 22.0212 16.3423 22.0653 16.1455 22.2678C15.3586 23.0779 14.5589 23.8755 13.7545 24.6686C13.3933 25.0247 12.9634 25.0888 12.5445 24.8854C12.0993 24.6695 11.8159 24.215 11.8378 23.7582C11.8529 23.4492 12.0048 23.2132 12.2169 23.0015C13.2426 21.9773 14.2655 20.9504 15.2888 19.9245C15.3565 19.8562 15.4197 19.7839 15.5182 19.6785Z" fill="white"/>
<path d="M16.3683 16.111C13.8789 16.1025 11.8376 14.0388 11.8521 11.5454C11.8665 9.02453 13.9091 6.99304 16.423 7.00002C18.942 7.0068 20.9638 9.06751 20.9512 11.6146C20.9384 14.1029 18.883 16.1196 16.3683 16.111ZM18.6307 11.5514C18.6264 10.3134 17.6404 9.32785 16.4049 9.32672C15.1589 9.3254 14.1641 10.3289 14.1737 11.5782C14.183 12.8115 15.1774 13.7901 16.4164 13.7856C17.6515 13.7812 18.6349 12.7893 18.6307 11.5514Z" fill="white"/>
</svg>

<svg width="32" height="32" viewBox="0 0 32 32" fill="none" xmlns="http://www.w3.org/2000/svg"><circle cx="16" cy="16" r="16" fill="#F7931E"/><path d="M15.518 19.678c-1.395-.145-2.653-.489-3.73-1.331-.134-.105-.272-.206-.394-.323-.472-.453-.52-.972-.146-1.506.32-.457.855-.58 1.412-.317.108.05.21.114.309.183 2.007 1.379 4.765 1.417 6.78.062.2-.154.413-.278.66-.342.482-.123.93.053 1.188.474.295.48.291.95-.072 1.323-.557.572-1.228.985-1.972 1.274-.704.273-1.476.41-2.239.502.115.125.17.187.242.26 1.036 1.04 2.077 2.078 3.11 3.122.352.356.426.797.232 1.211-.212.453-.686.75-1.151.719-.295-.02-.525-.167-.73-.373-.781-.787-1.578-1.56-2.344-2.362-.223-.233-.33-.189-.527.014a154.64 154.64 0 01-2.392 2.4c-.36.357-.79.42-1.21.217-.445-.216-.728-.67-.706-1.127.015-.309.167-.545.379-.756 1.026-1.025 2.048-2.052 3.072-3.078.068-.068.13-.14.23-.245z" fill="#fff"/><path d="M16.368 16.111c-2.49-.009-4.53-2.072-4.516-4.566A4.563 4.563 0 0116.423 7c2.519.007 4.54 2.068 4.528 4.615-.013 2.488-2.068 4.505-4.583 4.496zm2.263-4.56a2.219 2.219 0 00-2.226-2.224 2.222 2.222 0 00-2.231 2.251 2.219 2.219 0 002.242 2.208 2.214 2.214 0 002.215-2.235z" fill="#fff"/></svg>
